X:1
T:El Paran, LM
T:El Paran, LM
T:Arr. from Johann A. P. Schulz (1747-1800)
T:Public Domain Courtesy of the Cyber Hymnal™
C:Arr. from Johann A. P. Schulz (1747-1800)
Z:Public Domain
Z:Courtesy of the Cyber Hymnal™
%%score 1 2 3 4
L:1/8
Q:1/4=110
M:3/2
K:G
V:1 treble 
V:2 treble 
V:3 treble-8 
V:4 bass 
V:1
 B3 c | d2 d2 e4 d4 | d2 c2 B4 (G3 A) | B2 B2 c4 B4 | B2 A2 G4 G4 | G2 G2 A2 A2 A2 A2 | %6
 G6 G2 A2 A2 | G2 d2 (c2 B2) A4 | B8 |] %9
V:2
 D4 | D2 G2 G4 G4 | G2 D2 D4 G4 | G2 G2 G4 G4 | G2 D2 D4 (G3 F) | E2 E2 A2 A2 F2 F2 | G6 G2 E2 F2 | %7
 G2 D2 E4 D4 | D8 |] %9
V:3
 G3 A | B2 B2 c4 B4 | B2 A2 G4 (B3 c) | d2 d2 e4 d4 | d2 c2 B4 (B3 A) | G2 G2 c2 c2 A2 A2 | %6
 d6 B2 c2 A2 | B2 G2 E4 F4 | G8 |] %9
V:4
 G,4 | G,2 G,2 G,4 G,4 | D,2 D,2 G,4 G,4 | G,2 G,2 C,4 G,4 | D,2 D,2 G,4 B,,4 | %5
 C,2 C,2 A,,2 A,,2 D,2 D,2 | B,,6 E,2 A,,2 D,2 | G,2 B,,2 C,4 D,4 | G,,8 |] %9

